packages/icons/src/components/Icon/assets/default-outline/doc.svg

<svg width="20" height="20" viewBox="0 0 20 20" fill="none" xmlns="http://www.w3.org/2000/svg">
<path fill-rule="evenodd" clip-rule="evenodd" d="M4.5 3.58749V16.4125C4.50014 16.4128 4.50034 16.4133 4.50062 16.4139C4.50245 16.4177 4.50857 16.4282 4.5239 16.4417C4.55555 16.4695 4.61613 16.5 4.70156 16.5H15.4859C15.5714 16.5 15.632 16.4695 15.6636 16.4417C15.6789 16.4282 15.6851 16.4177 15.6869 16.4139C15.6872 16.4133 15.6874 16.4128 15.6875 16.4125V3.57049C15.6875 3.53105 15.6559 3.5 15.6174 3.5L4.70156 3.5C4.61613 3.5 4.55555 3.53047 4.5239 3.5583C4.50857 3.57178 4.50245 3.5823 4.50062 3.58608C4.50034 3.58668 4.50014 3.58715 4.5 3.58749ZM3 3.58654C3 2.62245 3.85552 2 4.70156 2L15.6174 2C16.4853 2 17.1875 2.70362 17.1875 3.57049V16.4135C17.1875 17.3776 16.332 18 15.4859 18H4.70156C3.85552 18 3 17.3776 3 16.4135V3.58654ZM6.17188 6.24958C6.17188 5.83537 6.50766 5.49958 6.92188 5.49958V6.24958V6.99958C6.50766 6.99958 6.17188 6.66379 6.17188 6.24958ZM6.92188 6.24958V6.99958H10.9396C11.3538 6.99958 11.6896 6.66379 11.6896 6.24958C11.6896 5.83537 11.3538 5.49958 10.9396 5.49958H6.92188V6.24958ZM6.17188 8.85215C6.17188 8.43793 6.50766 8.10215 6.92188 8.10215H13.2656C13.6798 8.10215 14.0156 8.43793 14.0156 8.85215C14.0156 9.26636 13.6798 9.60215 13.2656 9.60215H6.92188C6.50766 9.60215 6.17188 9.26636 6.17188 8.85215ZM6.17188 11.3245C6.17188 10.9103 6.50766 10.5745 6.92188 10.5745H13.2656C13.6798 10.5745 14.0156 10.9103 14.0156 11.3245C14.0156 11.7387 13.6798 12.0745 13.2656 12.0745H6.92188C6.50766 12.0745 6.17188 11.7387 6.17188 11.3245ZM6.17188 13.5553C6.17188 13.1411 6.50766 12.8053 6.92188 12.8053H10.0938C10.508 12.8053 10.8438 13.1411 10.8438 13.5553C10.8438 13.9695 10.508 14.3053 10.0938 14.3053H6.92188C6.50766 14.3053 6.17188 13.9695 6.17188 13.5553Z" fill="#727683"/>
</svg>

<svg xmlns="http://www.w3.org/2000/svg" width="20" height="20" fill="none" viewBox="0 0 20 20">
    <path d="M4.5 3.587v12.826a.1.1 0 0 0 .024.029.27.27 0 0 0 .178.058h10.784a.27.27 0 0 0 .178-.058.1.1 0 0 0 .024-.03V3.57a.07.07 0 0 0-.07-.07H4.701a.27.27 0 0 0-.178.058.1.1 0 0 0-.024.03m-1.5 0C3 2.622 3.856 2 4.702 2h10.915c.868 0 1.57.704 1.57 1.57v12.843c0 .965-.855 1.587-1.701 1.587H4.702C3.856 18 3 17.378 3 16.413zM6.172 6.25a.75.75 0 0 1 .75-.75V7a.75.75 0 0 1-.75-.75m.75 0V7h4.018a.75.75 0 0 0 0-1.5H6.922zm-.75 2.602a.75.75 0 0 1 .75-.75h6.344a.75.75 0 0 1 0 1.5H6.922a.75.75 0 0 1-.75-.75m0 2.473a.75.75 0 0 1 .75-.75h6.344a.75.75 0 0 1 0 1.5H6.922a.75.75 0 0 1-.75-.75m0 2.23a.75.75 0 0 1 .75-.75h3.172a.75.75 0 0 1 0 1.5H6.922a.75.75 0 0 1-.75-.75" clip-rule="evenodd"/>
</svg>
